frontend/src/assets/apply/general-apps.svg

<svg width="136" height="136" viewBox="0 0 136 136" fill="none" xmlns="http://www.w3.org/2000/svg">
<g filter="url(#filter0_d)">
<rect x="4" y="4" width="128" height="128" rx="15" fill="white"/>
</g>
<path d="M4 19C4 10.7157 10.7157 4 19 4H117C125.284 4 132 10.7157 132 19V40H4V19Z" fill="#F44343"/>
<path d="M45.5708 14.4545V29H48.5538V19.4972H48.6745L52.4387 28.929H54.47L58.2342 19.5327H58.3549V29H61.3379V14.4545H57.5453L53.5396 24.2273H53.3691L49.3635 14.4545H45.5708ZM66.3787 29L67.4583 25.6832H72.7069L73.7864 29H77.0819L72.0676 14.4545H68.1046L63.0833 29H66.3787ZM68.2395 23.2827L70.0293 17.7784H70.1429L71.9327 23.2827H68.2395ZM78.8326 29H81.9078V23.8438H84.1522L86.9078 29H90.3027L87.2132 23.3466C88.8681 22.6364 89.7843 21.1946 89.7843 19.206C89.7843 16.3153 87.8738 14.4545 84.5712 14.4545H78.8326V29ZM81.9078 21.3722V16.9688H83.9817C85.7573 16.9688 86.6167 17.7571 86.6167 19.206C86.6167 20.6477 85.7573 21.3722 83.9959 21.3722H81.9078Z" fill="white"/>
<path d="M69.8805 76.136C72.6965 76.136 75.1712 76.7547 77.3045 77.992C79.4805 79.1867 81.1658 80.872 82.3605 83.048C83.5552 85.224 84.1525 87.72 84.1525 90.536C84.1525 93.48 83.4698 96.0827 82.1045 98.344C80.7818 100.605 78.8832 102.376 76.4085 103.656C73.9765 104.893 71.1605 105.512 67.9605 105.512C65.3152 105.512 62.7125 105.085 60.1525 104.232C57.6352 103.336 55.4805 102.141 53.6885 100.648C52.7072 99.7947 52.2165 98.792 52.2165 97.64C52.2165 96.7013 52.4725 95.912 52.9845 95.272C53.5392 94.5893 54.1792 94.248 54.9045 94.248C55.3312 94.248 55.7365 94.3333 56.1205 94.504C56.5045 94.632 56.9525 94.8667 57.4645 95.208C59.1712 96.4027 60.8352 97.32 62.4565 97.96C64.0778 98.6 65.8058 98.92 67.6405 98.92C70.4565 98.92 72.6112 98.216 74.1045 96.808C75.5978 95.4 76.3445 93.3947 76.3445 90.792C76.3445 88.2747 75.5765 86.2907 74.0405 84.84C72.5472 83.3467 70.4778 82.6 67.8325 82.6C66.1685 82.6 64.6752 82.8347 63.3525 83.304C62.0725 83.7733 60.7498 84.5627 59.3845 85.672C58.5738 86.2267 57.7418 86.504 56.8885 86.504C56.0352 86.504 55.3098 86.248 54.7125 85.736C54.1152 85.224 53.8165 84.5413 53.8165 83.688V63.72C53.8165 62.5253 54.1578 61.5867 54.8405 60.904C55.5232 60.2213 56.4832 59.88 57.7205 59.88H79.0325C81.5925 59.88 82.8725 60.9467 82.8725 63.08C82.8725 65.2133 81.5925 66.28 79.0325 66.28H61.8805V78.44C64.0565 76.904 66.7232 76.136 69.8805 76.136Z" fill="black"/>
<defs>
<filter id="filter0_d" x="0" y="0" width="136" height="136" filterUnits="userSpaceOnUse" color-interpolation-filters="sRGB">
<feFlood flood-opacity="0" result="BackgroundImageFix"/>
<feColorMatrix in="SourceAlpha" type="matrix" values="0 0 0 0 0 0 0 0 0 0 0 0 0 0 0 0 0 0 127 0"/>
<feOffset/>
<feGaussianBlur stdDeviation="2"/>
<feColorMatrix type="matrix" values="0 0 0 0 0 0 0 0 0 0 0 0 0 0 0 0 0 0 0.25 0"/>
<feBlend mode="normal" in2="BackgroundImageFix" result="effect1_dropShadow"/>
<feBlend mode="normal" in="SourceGraphic" in2="effect1_dropShadow" result="shape"/>
</filter>
</defs>
</svg>

<svg width="136" height="136" fill="none" xmlns="http://www.w3.org/2000/svg"><g filter="url(#a)"><rect x="4" y="4" width="128" height="128" rx="15" fill="#fff"/></g><path d="M4 19c0-8.284 6.716-15 15-15h98c8.284 0 15 6.716 15 15v21H4V19z" fill="#F44343"/><path d="M45.57 14.454V29h2.984v-9.503h.12l3.765 9.432h2.031l3.764-9.396h.12V29h2.984V14.454h-3.793l-4.005 9.773h-.17l-4.006-9.773H45.57zM66.38 29l1.08-3.317h5.248L73.787 29h3.295l-5.014-14.546h-3.963L63.083 29h3.296zm1.86-5.717 1.79-5.505h.114l1.79 5.505h-3.694zM78.834 29h3.075v-5.156h2.244L86.908 29h3.395l-3.09-5.653c1.655-.71 2.571-2.152 2.571-4.141 0-2.89-1.91-4.752-5.213-4.752h-5.738V29zm3.075-7.628V16.97h2.074c1.775 0 2.635.788 2.635 2.237 0 1.442-.86 2.166-2.621 2.166h-2.088z" fill="#fff"/><path d="M69.88 76.136c2.817 0 5.291.619 7.425 1.856a12.54 12.54 0 0 1 5.055 5.056c1.195 2.176 1.793 4.672 1.793 7.488 0 2.944-.683 5.547-2.049 7.808-1.322 2.261-3.22 4.032-5.695 5.312-2.433 1.237-5.249 1.856-8.449 1.856a24.55 24.55 0 0 1-7.807-1.28c-2.518-.896-4.672-2.091-6.465-3.584-.98-.853-1.471-1.856-1.471-3.008 0-.939.255-1.728.767-2.368.555-.683 1.195-1.024 1.92-1.024.427 0 .832.085 1.216.256.385.128.833.363 1.345.704 1.706 1.195 3.37 2.112 4.991 2.752 1.622.64 3.35.96 5.184.96 2.817 0 4.971-.704 6.465-2.112 1.493-1.408 2.24-3.413 2.24-6.016 0-2.517-.769-4.501-2.305-5.952-1.493-1.493-3.562-2.24-6.208-2.24-1.663 0-3.157.235-4.48.704-1.28.47-2.602 1.259-3.967 2.368-.811.555-1.643.832-2.496.832-.854 0-1.58-.256-2.177-.768s-.896-1.195-.896-2.048V63.72c0-1.195.342-2.133 1.024-2.816.683-.683 1.643-1.024 2.88-1.024h21.313c2.56 0 3.84 1.067 3.84 3.2s-1.28 3.2-3.84 3.2H61.88v12.16c2.176-1.536 4.843-2.304 8-2.304z" fill="#000"/><defs><filter id="a" x="0" y="0" width="136" height="136" filterUnits="userSpaceOnUse" color-interpolation-filters="sRGB"><feFlood flood-opacity="0" result="BackgroundImageFix"/><feColorMatrix in="SourceAlpha" values="0 0 0 0 0 0 0 0 0 0 0 0 0 0 0 0 0 0 127 0"/><feOffset/><feGaussianBlur stdDeviation="2"/><feColorMatrix values="0 0 0 0 0 0 0 0 0 0 0 0 0 0 0 0 0 0 0.25 0"/><feBlend in2="BackgroundImageFix" result="effect1_dropShadow"/><feBlend in="SourceGraphic" in2="effect1_dropShadow" result="shape"/></filter></defs></svg>
